src/assets/img/unsorted/emotes/20.svg

<svg xmlns:xlink="http://www.w3.org/1999/xlink" height="100.8" width="132.65" xmlns="http://www.w3.org/2000/svg"><g transform="translate(77.75 73.55)"><use height="11.55" transform="translate(-12.3 -3.85)" width="25.05" xlink:href="#a"/><use height="38.3" transform="matrix(1.2 0 0 1.2 -4.69 -32.22)" width="43.2" xlink:href="#b"/><use height="38.3" transform="matrix(.8 0 0 .8 -50.06 -26.68)" width="43.2" xlink:href="#b"/><use height="38.3" transform="matrix(1.2 0 0 1.2 -77.74 -29.92)" width="43.2" xlink:href="#b"/><use height="38.3" transform="matrix(.8 0 0 .8 -7.81 -26.58)" width="43.2" xlink:href="#b"/><use height="38.3" transform="matrix(.8 0 0 .8 3.79 -3.38)" width="43.2" xlink:href="#b"/><use height="38.3" transform="matrix(.8 0 0 .8 -54.86 -4.48)" width="43.2" xlink:href="#b"/><use height="5.9" transform="translate(-7.2 -5.9)" width="14.1" xlink:href="#c"/></g><defs><g id="a"><path d="M6.8-3.45q4.25-.4 5.75 3.35.3.85.15 1.75-.55 3.5-4.35 3.15Q5 4.45 4.1 1.8l-.2-.75q-.25-1.3.25-2.5.75-1.85 2.65-2" fill="url(#d)" fill-rule="evenodd" transform="translate(12.3 3.85)"/><path d="M-3.55-.2q.75 3.4-2.25 4.8l-.45.15Q-8.7 5.1-10.3 4l-1.55-1.7-.4-1.15Q-12.55-2-10.3-3.2q.65-.4 1.5-.6 4.35-.4 5.25 3.6" fill="url(#e)" fill-rule="evenodd" transform="translate(12.3 3.85)"/><path d="M-3.45 4.75.1 7.2l3.4-2.3" fill="none" stroke="#333" stroke-linecap="round" stroke-linejoin="round" transform="translate(12.3 3.85)"/></g><g id="g" fill-rule="evenodd"><path d="m-2.6 5 .1-.9q0-1.35-.95-2.4L-5.25 0q-.95-1.05-.95-2.3 0-1.25.95-2l.05-.05.05-.05.15-.1h.05l.05-.05.05-.05h.05v-.05l.6-.2q-.65.3-.7 1.15 0 .3-.15.6.95 1.35 2.65 1.95l.8.6Q0 1.6-1.45 3.8L-2.6 5M.1-3.4l.45-.7q.9-1.05 2.45-1 1.25 0 2.25.7l.35.3v.05l.15.15.05.05q-2.3-.45-3.35.5-1.1.9-1.7.35-.6-.55-.65-.4" fill="#c36" transform="translate(6.2 5.1)"/><path d="m-4.2-4.85.5-.2h.05l.75-.05 1.8.45Q-.2-4.2.1-3.4q.05-.15.65.4t1.7-.35q1.05-.95 3.35-.5l.45 1.35q0 2.3-3.2 4.65-2.3 1.6-5.65 3V5l1.15-1.2Q0 1.6-1.6-.55l-.8-.6q-1.7-.6-2.65-1.95.15-.3.15-.6.05-.85.7-1.15" fill="#f39" transform="translate(6.2 5.1)"/></g><g id="c"><path d="M1.35-3.15v.05l-.05.7-.2.1.25-.85" fill="#fff" fill-rule="evenodd" transform="translate(7.2 5.9)"/><path d="m.9-.6.05-.7v-.1l.15-.9.25-.85.35-.8q.6-1.1 1.4-1.35l.55-.1q1.15 0 1.95 1.45.65 1.1.8 2.65v.8M-6.7-.65l.05-.65q.15-1.5.8-2.6.75-1.45 1.9-1.45l.65.15q.75.25 1.3 1.3.6 1.05.75 2.45v.15l.05.6" fill="none" stroke="#666" stroke-linecap="round" stroke-linejoin="round" transform="translate(7.2 5.9)"/></g><radialGradient cx="0" cy="0" gradientTransform="translate(8.5 .75) scale(.0068)" gradientUnits="userSpaceOnUse" id="d" r="819.2" spreadMethod="pad"><stop offset=".243" stop-color="#ff55a2"/><stop offset=".631" stop-color="#fff" stop-opacity="0"/></radialGradient><radialGradient cx="0" cy="0" gradientTransform="translate(-8.25 .75) scale(.0065)" gradientUnits="userSpaceOnUse" id="e" r="819.2" spreadMethod="pad"><stop offset=".243" stop-color="#ff55a2"/><stop offset=".631" stop-color="#fff" stop-opacity="0"/></radialGradient><use height="10.25" transform="matrix(1.2 0 0 1.2 28.26 25.98)" width="12.45" xlink:href="#f" id="b"/><use height="10.25" width="12.45" xlink:href="#g" id="f"/></defs></svg>

<?xml version="1.0" encoding="UTF-8" standalone="no"?>
<svg xmlns:xlink="http://www.w3.org/1999/xlink" height="100.8px" width="132.65px" xmlns="http://www.w3.org/2000/svg">
  <g transform="matrix(1.0, 0.0, 0.0, 1.0, 77.75, 73.55)">
    <use height="11.55" transform="matrix(1.0, 0.0, 0.0, 1.0, -12.3, -3.85)" width="25.05" xlink:href="#shape0"/>
    <use height="38.3" transform="matrix(1.2, 0.0, 0.0, 1.2, -4.6899, -32.2199)" width="43.2" xlink:href="#sprite0"/>
    <use height="38.3" transform="matrix(0.8, 0.0, 0.0, 0.8, -50.0599, -26.6799)" width="43.2" xlink:href="#sprite0"/>
    <use height="38.3" transform="matrix(1.2, 0.0, 0.0, 1.2, -77.7399, -29.9199)" width="43.2" xlink:href="#sprite0"/>
    <use height="38.3" transform="matrix(0.8, 0.0, 0.0, 0.8, -7.8099, -26.5799)" width="43.2" xlink:href="#sprite0"/>
    <use height="38.3" transform="matrix(0.8, 0.0, 0.0, 0.8, 3.7901, -3.3799)" width="43.2" xlink:href="#sprite0"/>
    <use height="38.3" transform="matrix(0.8, 0.0, 0.0, 0.8, -54.8599, -4.4799)" width="43.2" xlink:href="#sprite0"/>
    <use height="5.9" transform="matrix(1.0, 0.0, 0.0, 1.0, -7.2, -5.9)" width="14.1" xlink:href="#shape2"/>
  </g>
  <defs>
    <g id="shape0" transform="matrix(1.0, 0.0, 0.0, 1.0, 12.3, 3.85)">
      <path d="M6.8 -3.45 Q11.05 -3.85 12.55 -0.1 12.85 0.75 12.7 1.65 12.15 5.15 8.35 4.8 5.0 4.45 4.1 1.8 L3.9 1.05 Q3.65 -0.25 4.15 -1.45 4.9 -3.3 6.8 -3.45" fill="url(#gradient0)" fill-rule="evenodd" stroke="none"/>
      <path d="M-3.55 -0.2 Q-2.8 3.2 -5.8 4.6 L-6.25 4.75 Q-8.7 5.1 -10.3 4.0 L-11.85 2.3 -12.25 1.15 Q-12.55 -2.0 -10.3 -3.2 -9.65 -3.6 -8.8 -3.8 -4.45 -4.2 -3.55 -0.2" fill="url(#gradient1)" fill-rule="evenodd" stroke="none"/>
      <path d="M-3.45 4.75 L0.1 7.2 3.5 4.9" fill="none" stroke="#333333" stroke-linecap="round" stroke-linejoin="round" stroke-width="1.0"/>
    </g>
    <radialGradient cx="0" cy="0" gradientTransform="matrix(0.0068, 0.0, 0.0, 0.0068, 8.5, 0.75)" gradientUnits="userSpaceOnUse" id="gradient0" r="819.2" spreadMethod="pad">
      <stop offset="0.24313725490196078" stop-color="#ff55a2"/>
      <stop offset="0.6313725490196078" stop-color="#ffffff" stop-opacity="0.0"/>
    </radialGradient>
    <radialGradient cx="0" cy="0" gradientTransform="matrix(0.0065, 0.0, 0.0, 0.0065, -8.25, 0.75)" gradientUnits="userSpaceOnUse" id="gradient1" r="819.2" spreadMethod="pad">
      <stop offset="0.24313725490196078" stop-color="#ff55a2"/>
      <stop offset="0.6313725490196078" stop-color="#ffffff" stop-opacity="0.0"/>
    </radialGradient>
    <g id="sprite0" transform="matrix(1.0, 0.0, 0.0, 1.0, 6.2, 5.1)">
      <use height="10.25" transform="matrix(1.2, 0.0, 0.0, 1.2, 22.06, 20.88)" width="12.45" xlink:href="#sprite1"/>
    </g>
    <g id="sprite1" transform="matrix(1.0, 0.0, 0.0, 1.0, 6.2, 5.1)">
      <use height="10.25" transform="matrix(1.0, 0.0, 0.0, 1.0, -6.2, -5.1)" width="12.45" xlink:href="#shape1"/>
    </g>
    <g id="shape1" transform="matrix(1.0, 0.0, 0.0, 1.0, 6.2, 5.1)">
      <path d="M-2.6 5.0 L-2.5 4.1 Q-2.5 2.75 -3.45 1.7 L-5.25 0.0 Q-6.2 -1.05 -6.2 -2.3 -6.2 -3.55 -5.25 -4.3 L-5.2 -4.35 -5.15 -4.4 -5.0 -4.5 -4.95 -4.5 -4.9 -4.55 -4.85 -4.6 -4.8 -4.6 -4.8 -4.65 -4.2 -4.85 Q-4.85 -4.55 -4.9 -3.7 -4.9 -3.4 -5.05 -3.1 -4.1 -1.75 -2.4 -1.15 L-1.6 -0.55 Q0.0 1.6 -1.45 3.8 L-2.6 5.0 M0.1 -3.4 L0.55 -4.1 Q1.45 -5.15 3.0 -5.1 4.25 -5.1 5.25 -4.4 L5.6 -4.1 5.6 -4.05 5.75 -3.9 5.8 -3.85 Q3.5 -4.3 2.45 -3.35 1.35 -2.45 0.75 -3.0 0.15 -3.55 0.1 -3.4" fill="#cc3366" fill-rule="evenodd" stroke="none"/>
      <path d="M-4.2 -4.85 L-3.7 -5.05 -3.65 -5.05 -2.9 -5.1 -1.1 -4.65 Q-0.2 -4.2 0.1 -3.4 0.15 -3.55 0.75 -3.0 1.35 -2.45 2.45 -3.35 3.5 -4.3 5.8 -3.85 L6.25 -2.5 Q6.25 -0.2 3.05 2.15 0.75 3.75 -2.6 5.15 L-2.6 5.0 -1.45 3.8 Q0.0 1.6 -1.6 -0.55 L-2.4 -1.15 Q-4.1 -1.75 -5.05 -3.1 -4.9 -3.4 -4.9 -3.7 -4.85 -4.55 -4.2 -4.85" fill="#ff3399" fill-rule="evenodd" stroke="none"/>
    </g>
    <g id="shape2" transform="matrix(1.0, 0.0, 0.0, 1.0, 7.2, 5.9)">
      <path d="M1.35 -3.15 L1.35 -3.1 1.3 -2.4 1.1 -2.3 1.35 -3.15" fill="#ffffff" fill-rule="evenodd" stroke="none"/>
      <path d="M0.9 -0.6 L0.95 -1.3 0.95 -1.4 1.1 -2.3 1.35 -3.15 1.7 -3.95 Q2.3 -5.05 3.1 -5.3 L3.65 -5.4 Q4.8 -5.4 5.6 -3.95 6.25 -2.85 6.4 -1.3 L6.4 -0.5 M-6.7 -0.65 L-6.65 -1.3 Q-6.5 -2.8 -5.85 -3.9 -5.1 -5.35 -3.95 -5.35 L-3.3 -5.2 Q-2.55 -4.95 -2.0 -3.9 -1.4 -2.85 -1.25 -1.45 L-1.25 -1.3 -1.2 -0.7" fill="none" stroke="#666666" stroke-linecap="round" stroke-linejoin="round" stroke-width="1.0"/>
    </g>
  </defs>
</svg>
